X: 173
T: The Kerryman's Daughter
T:The Lilting Fisherman
R:reel
M:C|
L:1/8
K:C
A|"C"G2GE GAcd|edcB "Am"cAA2|"C"GEE2 GAcd|"Am"edcB "C"c3:|
d|"C"eg ~g2 "Am"agea|"G"gede "Am"cA~A2|"C"eg~g2 "Am"ea~a2|"G"gabg "Am"~a2ag|
"C"eg ~g2 "Am"agea|"G"gede "Am"cA~A2|"C"GEE2 GAcd|"Am"edcB "C"c3|]


